svgs/sharp-regular/menorah.svg

<svg xmlns="http://www.w3.org/2000/svg" viewBox="0 0 640 512"><!--! Font Awesome Pro 6.6.0 by @fontawesome - https://fontawesome.com License - https://fontawesome.com/license (Commercial License) Copyright 2024 Fonticons, Inc. --><path d="M4.2 48.7L32 0 59.8 48.7C62.6 53.5 64 58.9 64 64.4C64 81.8 49.8 96 32.4 96l-.8 0C14.2 96 0 81.8 0 64.4c0-5.5 1.4-10.9 4.2-15.7zm96 0L128 0l27.8 48.7c2.7 4.8 4.2 10.2 4.2 15.7C160 81.8 145.8 96 128.4 96l-.8 0C110.2 96 96 81.8 96 64.4c0-5.5 1.4-10.9 4.2-15.7zM224 0l27.8 48.7c2.7 4.8 4.2 10.2 4.2 15.7C256 81.8 241.8 96 224.4 96l-.8 0C206.2 96 192 81.8 192 64.4c0-5.5 1.4-10.9 4.2-15.7L224 0zm68.2 48.7L320 0l27.8 48.7c2.7 4.8 4.2 10.2 4.2 15.7C352 81.8 337.8 96 320.4 96l-.8 0C302.2 96 288 81.8 288 64.4c0-5.5 1.4-10.9 4.2-15.7zM416 0l27.8 48.7c2.7 4.8 4.2 10.2 4.2 15.7C448 81.8 433.8 96 416.4 96l-.8 0C398.2 96 384 81.8 384 64.4c0-5.5 1.4-10.9 4.2-15.7L416 0zm68.2 48.7L512 0l27.8 48.7c2.7 4.8 4.2 10.2 4.2 15.7C544 81.8 529.8 96 512.4 96l-.8 0C494.2 96 480 81.8 480 64.4c0-5.5 1.4-10.9 4.2-15.7zM608 0l27.8 48.7c2.7 4.8 4.2 10.2 4.2 15.7C640 81.8 625.8 96 608.4 96l-.8 0C590.2 96 576 81.8 576 64.4c0-5.5 1.4-10.9 4.2-15.7L608 0zM48 128l0 24 0 128c0 22.1 17.9 40 40 40l208 0 0-168 0-24 48 0 0 24 0 168 208 0c22.1 0 40-17.9 40-40l0-128 0-24 48 0 0 24 0 128c0 48.6-39.4 88-88 88l-208 0 0 96 144 0 24 0 0 48-24 0-168 0-168 0-24 0 0-48 24 0 144 0 0-96L88 368c-48.6 0-88-39.4-88-88L0 152l0-24 48 0zm104 24l0 136-48 0 0-136 0-24 48 0 0 24zm96 0l0 136-48 0 0-136 0-24 48 0 0 24zm192 0l0 136-48 0 0-136 0-24 48 0 0 24zm96 0l0 136-48 0 0-136 0-24 48 0 0 24z"/></svg>

<svg xmlns="http://www.w3.org/2000/svg" viewBox="0 0 640 512"><!--! Font Awesome Pro 6.4.0 by @fontawesome - https://fontawesome.com License - https://fontawesome.com/license (Commercial License) Copyright 2023 Fonticons, Inc. --><path d="M4.2 48.7L32 0 59.8 48.7C62.6 53.5 64 58.9 64 64.4C64 81.8 49.8 96 32.4 96h-.8C14.2 96 0 81.8 0 64.4c0-5.5 1.4-10.9 4.2-15.7zm96 0L128 0l27.8 48.7c2.7 4.8 4.2 10.2 4.2 15.7C160 81.8 145.8 96 128.4 96h-.8C110.2 96 96 81.8 96 64.4c0-5.5 1.4-10.9 4.2-15.7zM224 0l27.8 48.7c2.7 4.8 4.2 10.2 4.2 15.7C256 81.8 241.8 96 224.4 96h-.8C206.2 96 192 81.8 192 64.4c0-5.5 1.4-10.9 4.2-15.7L224 0zm68.2 48.7L320 0l27.8 48.7c2.7 4.8 4.2 10.2 4.2 15.7C352 81.8 337.8 96 320.4 96h-.8C302.2 96 288 81.8 288 64.4c0-5.5 1.4-10.9 4.2-15.7zM416 0l27.8 48.7c2.7 4.8 4.2 10.2 4.2 15.7C448 81.8 433.8 96 416.4 96h-.8C398.2 96 384 81.8 384 64.4c0-5.5 1.4-10.9 4.2-15.7L416 0zm68.2 48.7L512 0l27.8 48.7c2.7 4.8 4.2 10.2 4.2 15.7C544 81.8 529.8 96 512.4 96h-.8C494.2 96 480 81.8 480 64.4c0-5.5 1.4-10.9 4.2-15.7zM608 0l27.8 48.7c2.7 4.8 4.2 10.2 4.2 15.7C640 81.8 625.8 96 608.4 96h-.8C590.2 96 576 81.8 576 64.4c0-5.5 1.4-10.9 4.2-15.7L608 0zM48 128v24V280c0 22.1 17.9 40 40 40H296V152 128h48v24V320H552c22.1 0 40-17.9 40-40V152 128h48v24V280c0 48.6-39.4 88-88 88H344v96H488h24v48H488 320 152 128V464h24H296V368H88c-48.6 0-88-39.4-88-88V152 128H48zm104 24V288H104V152 128h48v24zm96 0V288H200V152 128h48v24zm192 0V288H392V152 128h48v24zm96 0V288H488V152 128h48v24z"/></svg>
